X: 7063
T: Chorus, The
R: reel
M: 4/4
K: Dmixolydian
AD D2 AGFG|AD D2 A2dB|AD D2 AGFG|E2cA G2FG|
AD D2 AGFG|AD D2 AD D2|AD D2 AGFG|E2cA G2FG||
Addc AGFG|Addc A3G|Fddc AGFG|E2cA G2FG|
Addc AGFG|Addc A2Bc|dBcA BGAG|E2cA G2eg||
f2dg f2dg|f2df a3g|f2dg f2df|e3f g2ag|
f2dg f2dg|f2df a3g|f2dg f2df|e3f g2ag||
fde^c d2dB|AD D2 A2Bc|dBcA BGAG|E2cA G2ag|
fde^c d2dB|AD D2 AD D2|dBcA BGAG|E2cA G2FG||

